public/avatar/shoe/147.svg

<svg xmlns:xlink="http://www.w3.org/1999/xlink" height="38.3" width="36.05" xmlns="http://www.w3.org/2000/svg"><use height="19.75" transform="translate(9.4 8.3)" width="21.85" xlink:href="#a"/><defs><g id="a" fill-rule="evenodd"><path d="m6-3.6.3 4.95Q6.75 6.6 7.45 8.2q-1.8 2.2-2.65 2.35l-1.4-.4-.45 1.25q-2.5 1.2-5.9 1.65-6.75.8-11.05-3.15-1.2-3.2 1-6.25l4.7-3.6q1.05-1.75.25-3.95l-.5-.95q-.2-1.1 1-1.7l12.3.4Q8.4-5.55 6-3.6" transform="translate(14.4 6.55)"/><path d="M2.15 10.55q-7.7 3.8-15-1v-2.4q11.3 3.7 17.8-1.35l.95-.7.4 2.95-1.9 1.6-.15-1.75-1.5.75-.6 1.9" fill="#f754a6" transform="translate(14.4 6.55)"/><path d="M5-.6q.15 4.55.9 5.7Q3.8 6.95.45 8.2q-6.8 2.45-13.3-.6-.9-3.05 5.4-6.8 1.7-1.9.15-6.65 2.7 2.25 12.3.9V-.6" fill="#fff" transform="translate(14.4 6.55)"/><path d="M5-4.95q-8.55 1.6-12.25-.75-.3-.85 6.3-.4l3.2.25q3.15.3 2.75.9m-.6 14.6L2.55 9.2l.2-.55 1.5-.75.15 1.7v.05" fill="#3a0524" transform="translate(14.4 6.55)"/><path d="M5.15-5.15q1.25.35-.1 1.1-8.9 1.85-11.9-.55-.7-.35-.6-.95l.2-.55q4.25 2.55 12.4.95" fill="#f754a6" transform="translate(14.4 6.55)"/><path d="M5.65-4.9 4.5-5.1q1.05-.1-3.45-.95 4.2.1 4.6 1.15" fill="#f754a6" transform="translate(14.4 6.55)"/><path d="M5.9 5.1Q4 6.95.7 8.2q-6.65 2.45-13.55-.6l6.1 1.2q7.2.35 12.45-4.1l.2.4" fill="#631445" transform="translate(14.4 6.55)"/><path d="M1.95 10.35Q-.6 11.8-4.35 11.8q-4.15 0-8.1-2.35 3 1.5 6.7 1.5 3.25 0 6.25-1.05l1-1.6q2.75-1.15 4.2-2.7l.5 2.25-1.45 1.2L4.5 7.7l-1.95.65-.6 2" fill="#ac3b74" transform="translate(14.4 6.55)"/><path d="M-2-2.85q3 0 6.3-.75l.45 8.45q-5.55 2.8-10.3 2.8l-1.95-.1h.65q3.85 0 9.5-3 1.05-1.1.8-3.95L3-2.1l-2.25.25q-3 0-6.2-1.5 1.2.5 3.45.5" fill="#b2b2b2" transform="translate(14.4 6.55)"/><path d="m-8.85 2.3 1.15.75q1.1 1 .4 2-1 2.55-3.55 2.35-1.2.2-1.35-.35-1.15-2.6 3.35-4.75" fill="#d1cfd0" transform="translate(14.4 6.55)"/><path d="M-12.1 5.15Q-11 3.6-9.95 4.1q1.15.55.15 2.1-1.05 1.65-2.25 1.15-1.05-.5-.05-2.2" fill="#fff" transform="translate(14.4 6.55)"/><path d="m-7.75 3.1-1.3-.7 3.3-1.1q1.55-.2-.2.15Q-7 1.7-7.5 2.4l-.25.7" fill="#d1cfd0" transform="translate(14.4 6.55)"/><path d="M-12.55 8.3q2 1.9 8.55 2.05-3.7 1.05-8.55-1.25v-.8" fill="#fff" transform="translate(14.4 6.55)"/></g></defs></svg>

<?xml version="1.0" encoding="UTF-8" standalone="no"?>
<svg xmlns:xlink="http://www.w3.org/1999/xlink" height="38.3px" width="36.05px" xmlns="http://www.w3.org/2000/svg">
  <g transform="matrix(1.0, 0.0, 0.0, 1.0, 23.8, 14.85)">
    <use height="19.75" transform="matrix(1.0, 0.0, 0.0, 1.0, -14.4, -6.55)" width="21.85" xlink:href="#shape0"/>
  </g>
  <defs>
    <g id="shape0" transform="matrix(1.0, 0.0, 0.0, 1.0, 14.4, 6.55)">
      <path d="M6.0 -3.6 L6.3 1.35 Q6.75 6.6 7.45 8.2 5.65 10.4 4.8 10.55 L3.4 10.15 2.95 11.4 Q0.45 12.6 -2.95 13.05 -9.7 13.85 -14.0 9.9 -15.2 6.7 -13.0 3.65 L-8.3 0.05 Q-7.25 -1.7 -8.05 -3.9 L-8.55 -4.85 Q-8.75 -5.95 -7.55 -6.55 L4.75 -6.15 Q8.4 -5.55 6.0 -3.6" fill="#000000" fill-rule="evenodd" stroke="none"/>
      <path d="M2.15 10.55 Q-5.55 14.35 -12.85 9.55 L-12.85 7.15 Q-1.55 10.85 4.95 5.8 L5.9 5.1 6.3 8.05 4.4 9.65 4.25 7.9 2.75 8.65 2.15 10.55" fill="#f754a6" fill-rule="evenodd" stroke="none"/>
      <path d="M5.0 -0.6 Q5.15 3.95 5.9 5.1 3.8 6.95 0.45 8.2 -6.35 10.65 -12.85 7.6 -13.75 4.55 -7.45 0.8 -5.75 -1.1 -7.3 -5.85 -4.6 -3.6 5.0 -4.95 L5.0 -0.6" fill="#ffffff" fill-rule="evenodd" stroke="none"/>
      <path d="M5.0 -4.95 Q-3.55 -3.35 -7.25 -5.7 -7.55 -6.55 -0.95 -6.1 L2.25 -5.85 Q5.4 -5.55 5.0 -4.95" fill="#3a0524" fill-rule="evenodd" stroke="none"/>
      <path d="M4.4 9.65 L2.55 9.2 2.75 8.65 4.25 7.9 4.4 9.6 4.4 9.65" fill="#3a0524" fill-rule="evenodd" stroke="none"/>
      <path d="M5.15 -5.15 Q6.4 -4.8 5.05 -4.05 -3.85 -2.2 -6.85 -4.6 -7.55 -4.95 -7.45 -5.55 L-7.25 -6.1 Q-3.0 -3.55 5.15 -5.15" fill="#f754a6" fill-rule="evenodd" stroke="none"/>
      <path d="M5.65 -4.9 L4.5 -5.1 Q5.55 -5.2 1.05 -6.05 5.25 -5.95 5.65 -4.9" fill="#f754a6" fill-rule="evenodd" stroke="none"/>
      <path d="M5.9 5.1 Q4.0 6.95 0.7 8.2 -5.95 10.65 -12.85 7.6 L-6.75 8.8 Q0.45 9.15 5.7 4.7 L5.9 5.1" fill="#631445" fill-rule="evenodd" stroke="none"/>
      <path d="M1.95 10.35 Q-0.6 11.8 -4.35 11.8 -8.5 11.8 -12.45 9.45 -9.45 10.95 -5.75 10.95 -2.5 10.95 0.5 9.9 L1.5 8.3 Q4.25 7.15 5.7 5.6 L6.2 7.85 4.75 9.05 4.5 7.7 2.55 8.35 1.95 10.35" fill="#ac3b74" fill-rule="evenodd" stroke="none"/>
      <path d="M-2.0 -2.85 Q1.0 -2.85 4.3 -3.6 L4.75 4.85 Q-0.8 7.65 -5.55 7.65 L-7.5 7.55 -6.85 7.55 Q-3.0 7.55 2.65 4.55 3.7 3.45 3.45 0.6 L3.0 -2.1 0.75 -1.85 Q-2.25 -1.85 -5.45 -3.35 -4.25 -2.85 -2.0 -2.85" fill="#b2b2b2" fill-rule="evenodd" stroke="none"/>
      <path d="M-8.85 2.3 L-7.7 3.05 Q-6.6 4.05 -7.3 5.05 -8.3 7.6 -10.85 7.4 -12.05 7.6 -12.2 7.05 -13.35 4.45 -8.85 2.3" fill="#d1cfd0" fill-rule="evenodd" stroke="none"/>
      <path d="M-12.1 5.15 Q-11.0 3.6 -9.95 4.1 -8.8 4.65 -9.8 6.2 -10.85 7.85 -12.05 7.35 -13.1 6.85 -12.1 5.15" fill="#ffffff" fill-rule="evenodd" stroke="none"/>
      <path d="M-7.75 3.1 L-9.05 2.4 -5.75 1.3 Q-4.2 1.1 -5.95 1.45 -7.0 1.7 -7.5 2.4 L-7.75 3.1" fill="#d1cfd0" fill-rule="evenodd" stroke="none"/>
      <path d="M-12.55 8.3 Q-10.55 10.2 -4.0 10.35 -7.7 11.4 -12.55 9.1 L-12.55 8.3" fill="#ffffff" fill-rule="evenodd" stroke="none"/>
    </g>
  </defs>
</svg>
